app/img/auth-bg-tablet.svg

<?xml version="1.0" encoding="UTF-8"?>
<svg width="768" height="1024" viewBox="0 0 768 1024" version="1.1" xmlns="http://www.w3.org/2000/svg" xmlns:xlink="http://www.w3.org/1999/xlink">
    <!-- Generator: Sketch 49.1 (51147) - http://www.bohemiancoding.com/sketch -->
    <title>Goody_Autorisation</title>
    <desc>Created with Sketch.</desc>
    <defs>
        <linearGradient x1="0.386639031%" y1="50.386639%" x2="99.613361%" y2="50.386639%" id="linearGradient-1">
            <stop stop-color="#F7AB42" offset="0%"></stop>
            <stop stop-color="#FBA093" offset="100%"></stop>
        </linearGradient>
    </defs>
    <g id="Goody_Autorisation" stroke="none" stroke-width="1" fill="none" fill-rule="evenodd">
        <path d="M229.527496,-145.081684 C225.146444,-34.9524462 265.328836,50.7987491 350.074672,112.171902 C477.193426,204.23163 521.590818,346.367096 530.591765,416.56285 C534.039336,443.449448 558.650836,513.266047 608.392974,559.606745 C632.950299,582.484804 683.141325,607.225471 758.966052,633.828745 L758.966052,-143.946153" id="Path-3" fill="#D8D8D8" opacity="0.36" transform="translate(494.085261, 244.373530) rotate(-360.000000) translate(-494.085261, -244.373530) "></path>
        <path d="M768,708.914615 C753.124689,706.531734 746.715055,703.366753 714.472966,672.959299 C588.959735,554.588008 654.119306,383.890667 496.73233,260.978438 C472.428603,241.998308 439.85816,237.331625 405.377548,222.1393 C380.082162,210.99403 353.741496,195.73565 328.777389,174.458872 C309.192325,157.766625 290.454514,137.37014 273.733378,112.34942 C252.07262,79.9372823 233.161494,42.4874757 217,4.4408921e-16 L768,4.4408921e-16 C777.916874,474.19833 777.916874,710.503202 768,708.914615 Z" id="Path-9" fill="url(#linearGradient-1)"></path>
    </g>
</svg>

<svg width="768" height="1024" xmlns="http://www.w3.org/2000/svg"><defs><linearGradient x1=".3866%" y1="50.3866%" x2="99.6134%" y2="50.3866%" id="a"><stop stop-color="#F7AB42" offset="0%"/><stop stop-color="#FBA093" offset="100%"/></linearGradient></defs><g fill="none" fill-rule="evenodd"><path d="M229.5275-145.0817c-4.381 110.1293 35.8013 195.8804 120.5472 257.2536 127.1187 92.0597 171.5161 234.1952 180.517 304.391 3.4476 26.8865 28.0591 96.7031 77.8013 143.0438 24.5573 22.8781 74.7483 47.6188 150.573 74.222v-777.7749" fill="#D8D8D8" opacity=".36"/><path d="M768 708.9146c-14.8753-2.3829-21.285-5.5478-53.527-35.9553-125.5133-118.3713-60.3537-289.0686-217.7407-411.9809-24.3037-18.98-56.8741-23.6468-91.3548-38.8391-25.2953-11.1453-51.636-26.4036-76.6001-47.6804-19.585-16.6923-38.3229-37.0888-55.044-62.1095C252.0726 79.9373 233.1614 42.4874 217 0h551c9.9169 474.1983 9.9169 710.5032 0 708.9146z" fill="url(#a)"/></g></svg>
